dist/img/terminal.svg

<svg width="115" height="204" fill="none" xmlns="http://www.w3.org/2000/svg"><g clip-path="url(#clip0)"><path d="M111.62 203.83H3c-1.66 0-3-1.34-3-3V14.09C0 6.32 6.32 0 14.09 0h86.44c7.77 0 14.09 6.32 14.09 14.09v186.74c0 1.66-1.34 3-3 3zM6 197.83h102.62v-57.67H6v57.67zm0-63.66h102.62V14.09c0-4.46-3.63-8.09-8.09-8.09H14.09C9.63 6 6 9.63 6 14.09v120.08zm42.98-6.95h-1.57c-1.66 0-3-1.34-3-3s1.34-3 3-3h1.57c1.66 0 3 1.34 3 3s-1.34 3-3 3zm-12.86 0h-1.57c-1.66 0-3-1.34-3-3s1.34-3 3-3h1.57c1.66 0 3 1.34 3 3s-1.34 3-3 3zm-12.85 0H21.7c-1.66 0-3-1.34-3-3s1.34-3 3-3h1.57c1.66 0 3 1.34 3 3s-1.34 3-3 3zm69.65-4.2H69.71c-1.66 0-3-1.34-3-3v-14.96c0-1.66 1.34-3 3-3h23.21c1.66 0 3 1.34 3 3v14.96c0 1.66-1.34 3-3 3zm-20.21-6h17.21v-8.96H72.71v8.96zm-23.73.62h-1.57c-1.66 0-3-1.34-3-3s1.34-3 3-3h1.57c1.66 0 3 1.34 3 3s-1.34 3-3 3zm-12.86 0h-1.57c-1.66 0-3-1.34-3-3s1.34-3 3-3h1.57c1.66 0 3 1.34 3 3s-1.34 3-3 3zm-12.85 0H21.7c-1.66 0-3-1.34-3-3s1.34-3 3-3h1.57c1.66 0 3 1.34 3 3s-1.34 3-3 3zm25.71-9.57h-1.57c-1.66 0-3-1.34-3-3s1.34-3 3-3h1.57c1.66 0 3 1.34 3 3s-1.34 3-3 3zm-12.86 0h-1.57c-1.66 0-3-1.34-3-3s1.34-3 3-3h1.57c1.66 0 3 1.34 3 3s-1.34 3-3 3zm-12.85 0H21.7c-1.66 0-3-1.34-3-3s1.34-3 3-3h1.57c1.66 0 3 1.34 3 3s-1.34 3-3 3zm69.65-13.65H21.7c-1.66 0-3-1.34-3-3V23.2c0-1.66 1.34-3 3-3h71.22c1.66 0 3 1.34 3 3v68.22c0 1.66-1.34 3-3 3zm-68.22-6h65.22V26.2H24.7v62.22z" fill="#3F7BA3"/></g><defs><clipPath id="clip0"><path fill="#fff" d="M0 0h114.63v203.83H0z"/></clipPath></defs></svg>

<svg width="115" height="204" viewBox="0 0 115 204" fill="none" xmlns="http://www.w3.org/2000/svg">
<g clip-path="url(#clip0)">
<path d="M111.62 203.83H3C1.34 203.83 0 202.49 0 200.83V14.09C0 6.32 6.32 0 14.09 0H100.53C108.3 0 114.62 6.32 114.62 14.09V200.83C114.62 202.49 113.28 203.83 111.62 203.83ZM6 197.83H108.62V140.16H6V197.83ZM6 134.17H108.62V14.09C108.62 9.63 104.99 6 100.53 6H14.09C9.63 6 6 9.63 6 14.09V134.17ZM48.98 127.22H47.41C45.75 127.22 44.41 125.88 44.41 124.22C44.41 122.56 45.75 121.22 47.41 121.22H48.98C50.64 121.22 51.98 122.56 51.98 124.22C51.98 125.88 50.64 127.22 48.98 127.22ZM36.12 127.22H34.55C32.89 127.22 31.55 125.88 31.55 124.22C31.55 122.56 32.89 121.22 34.55 121.22H36.12C37.78 121.22 39.12 122.56 39.12 124.22C39.12 125.88 37.78 127.22 36.12 127.22ZM23.27 127.22H21.7C20.04 127.22 18.7 125.88 18.7 124.22C18.7 122.56 20.04 121.22 21.7 121.22H23.27C24.93 121.22 26.27 122.56 26.27 124.22C26.27 125.88 24.93 127.22 23.27 127.22ZM92.92 123.02H69.71C68.05 123.02 66.71 121.68 66.71 120.02V105.06C66.71 103.4 68.05 102.06 69.71 102.06H92.92C94.58 102.06 95.92 103.4 95.92 105.06V120.02C95.92 121.68 94.58 123.02 92.92 123.02ZM72.71 117.02H89.92V108.06H72.71C72.71 108.07 72.71 117.02 72.71 117.02ZM48.98 117.64H47.41C45.75 117.64 44.41 116.3 44.41 114.64C44.41 112.98 45.75 111.64 47.41 111.64H48.98C50.64 111.64 51.98 112.98 51.98 114.64C51.98 116.3 50.64 117.64 48.98 117.64ZM36.12 117.64H34.55C32.89 117.64 31.55 116.3 31.55 114.64C31.55 112.98 32.89 111.64 34.55 111.64H36.12C37.78 111.64 39.12 112.98 39.12 114.64C39.12 116.3 37.78 117.64 36.12 117.64ZM23.27 117.64H21.7C20.04 117.64 18.7 116.3 18.7 114.64C18.7 112.98 20.04 111.64 21.7 111.64H23.27C24.93 111.64 26.27 112.98 26.27 114.64C26.27 116.3 24.93 117.64 23.27 117.64ZM48.98 108.07H47.41C45.75 108.07 44.41 106.73 44.41 105.07C44.41 103.41 45.75 102.07 47.41 102.07H48.98C50.64 102.07 51.98 103.41 51.98 105.07C51.98 106.73 50.64 108.07 48.98 108.07ZM36.12 108.07H34.55C32.89 108.07 31.55 106.73 31.55 105.07C31.55 103.41 32.89 102.07 34.55 102.07H36.12C37.78 102.07 39.12 103.41 39.12 105.07C39.12 106.73 37.78 108.07 36.12 108.07ZM23.27 108.07H21.7C20.04 108.07 18.7 106.73 18.7 105.07C18.7 103.41 20.04 102.07 21.7 102.07H23.27C24.93 102.07 26.27 103.41 26.27 105.07C26.27 106.73 24.93 108.07 23.27 108.07ZM92.92 94.42H21.7C20.04 94.42 18.7 93.08 18.7 91.42V23.2C18.7 21.54 20.04 20.2 21.7 20.2H92.92C94.58 20.2 95.92 21.54 95.92 23.2V91.42C95.92 93.08 94.58 94.42 92.92 94.42ZM24.7 88.42H89.92V26.2H24.7V88.42Z" fill="#3F7BA3"/>
</g>
<defs>
<clipPath id="clip0">
<rect width="114.63" height="203.83" fill="white"/>
</clipPath>
</defs>
</svg>
